public/logo-white.svg

<svg width="273" height="330" viewBox="0 0 273 330" fill="none" xmlns="http://www.w3.org/2000/svg">
<g clip-path="url(#clip0)">
<path fill-rule="evenodd" clip-rule="evenodd" d="M78.0354 101.507V146.135L0.155029 195.842V228.259L78.0354 277.965V307.378C78.0354 313.11 80.3146 318.607 84.3717 322.66C88.4288 326.713 93.9313 328.99 99.6688 328.99H250.108C255.846 328.99 261.348 326.713 265.405 322.66C269.462 318.607 271.741 313.11 271.741 307.378V101.507H78.0354ZM39.3764 211.466L78.0354 188.148V235.888L39.3764 211.466ZM246.3 203.254V219.096L192.692 253.242V232.214L227.155 211.446V210.905L192.692 190.136V169.108L246.3 203.254ZM108.625 267.116H128.096L173.222 148.318H153.753L108.625 267.116Z" fill="white"/>
<path d="M138.241 62.7365C138.241 65.9566 141.962 69.22 148.149 71.3811L142.2 84.0022C128.852 78.3183 123.466 70.6463 123.466 62.4988C123.466 52.1252 132.378 48.1703 132.378 41.4924C132.378 38.1426 128.658 35.0089 122.471 32.8478L128.354 20.1403C141.703 25.9106 147.262 33.5826 147.262 41.7517C147.262 52.1252 138.241 56.0802 138.241 62.7365Z" fill="white"/>
<path d="M212.877 62.7365C212.877 65.9566 216.597 69.22 222.764 71.3811L216.836 84.0022C203.487 78.3183 198.036 70.6463 198.036 62.4988C198.036 52.1252 206.949 48.1703 206.949 41.4924C206.949 38.1426 203.228 35.0089 197.041 32.8478L202.99 20.1403C216.338 25.8241 221.79 33.4962 221.79 41.7517C221.79 52.1252 212.877 56.0802 212.877 62.7365Z" fill="white"/>
<path d="M176.835 43.1996C176.835 46.3981 180.556 49.6831 186.743 51.8443L180.794 64.4437C167.446 58.7599 161.995 51.1094 161.995 42.9403C161.995 32.5668 170.907 28.6119 170.907 21.9339C170.907 18.6057 167.187 15.4505 161 13.2893L166.948 0.689819C180.296 6.37364 185.748 14.0241 185.748 22.3014C185.748 32.5668 176.835 36.5217 176.835 43.1996Z" fill="white"/>
</g>
<defs>
<clipPath id="clip0">
<rect width="272.514" height="328.861" fill="white" transform="translate(0.155029 0.689819)"/>
</clipPath>
</defs>
</svg>

<svg width="273" height="330" fill="none" xmlns="http://www.w3.org/2000/svg"><g clip-path="url(#clip0)" fill="#fff"><path fill-rule="evenodd" clip-rule="evenodd" d="M78.035 101.507v44.628L.155 195.842v32.417l77.88 49.706v29.413a21.6 21.6 0 006.337 15.282 21.644 21.644 0 0015.297 6.33h150.439c5.738 0 11.24-2.277 15.297-6.33a21.6 21.6 0 006.336-15.282V101.507H78.035zM39.376 211.466l38.66-23.318v47.74l-38.66-24.422zm206.924-8.212v15.842l-53.608 34.146v-21.028l34.463-20.768v-.541l-34.463-20.769v-21.028l53.608 34.146zm-137.675 63.862h19.471l45.126-118.798h-19.469l-45.128 118.798z"/><path d="M138.241 62.736c0 3.22 3.721 6.484 9.908 8.645L142.2 84.002c-13.348-5.684-18.734-13.356-18.734-21.503 0-10.374 8.912-14.329 8.912-21.007 0-3.35-3.72-6.483-9.907-8.644l5.883-12.708c13.349 5.77 18.908 13.443 18.908 21.612 0 10.373-9.021 14.328-9.021 20.984zM212.877 62.736c0 3.22 3.72 6.484 9.887 8.645l-5.928 12.621c-13.349-5.684-18.8-13.356-18.8-21.503 0-10.374 8.913-14.329 8.913-21.007 0-3.35-3.721-6.483-9.908-8.644l5.949-12.708c13.348 5.684 18.8 13.356 18.8 21.612 0 10.373-8.913 14.328-8.913 20.984zM176.835 43.2c0 3.198 3.721 6.483 9.908 8.644l-5.949 12.6c-13.348-5.684-18.799-13.335-18.799-21.504 0-10.373 8.912-14.328 8.912-21.006 0-3.328-3.72-6.484-9.907-8.645l5.948-12.6c13.348 5.685 18.8 13.335 18.8 21.612 0 10.266-8.913 14.22-8.913 20.899z"/></g><defs><clipPath id="clip0"><path fill="#fff" transform="translate(.155 .69)" d="M0 0h272.514v328.861H0z"/></clipPath></defs></svg>
